public/icon_offer.svg

<svg fill="none" height="56" viewBox="0 0 57 56" width="57" xmlns="http://www.w3.org/2000/svg" xmlns:xlink="http://www.w3.org/1999/xlink"><radialGradient id="a" cx="0" cy="0" gradientTransform="matrix(60.00000991 -57.00001084 56.9250749 59.92112998 -1.5 57)" gradientUnits="userSpaceOnUse" r="1"><stop offset="0" stop-color="#5bcaff"/><stop offset="1" stop-color="#06f"/></radialGradient><path d="m12.7969 52.0234c1.2422.9375 2.789.6563 4.4765-.5859l11.2266-8.25 11.2031 8.25c1.6875 1.2422 3.2344 1.5234 4.4766.5859s1.5-2.4843.8203-4.4296l-4.4297-13.1719 11.3203-8.1094c1.6875-1.1953 2.4141-2.5781 1.9219-4.0781-.5156-1.4532-1.8984-2.1563-3.9609-2.1328l-13.875.0937-4.2188-13.26561c-.6328-1.99219-1.7109-3.09375-3.2578-3.09375s-2.625 1.10156-3.2812 3.09375l-4.2188 13.26561-13.875-.0937c-2.0625-.0235-3.44531.6796-3.9375 2.1328-.51562 1.5.23438 2.8828 1.92188 4.0781l11.32032 8.1094-4.4531 13.1719c-.6563 1.9453-.3985 3.4921.8203 4.4296z" fill="url(#a)"/></svg>

<svg width="57" height="56" viewBox="0 0 57 56" fill="none" xmlns="http://www.w3.org/2000/svg">
<path d="M12.7969 52.0234C14.0391 52.9609 15.5859 52.6797 17.2734 51.4375L28.5 43.1875L39.7031 51.4375C41.3906 52.6797 42.9375 52.9609 44.1797 52.0234C45.4219 51.0859 45.6797 49.5391 45 47.5938L40.5703 34.4219L51.8906 26.3125C53.5781 25.1172 54.3047 23.7344 53.8125 22.2344C53.2969 20.7812 51.9141 20.0781 49.8516 20.1016L35.9766 20.1953L31.7578 6.92969C31.125 4.9375 30.0469 3.83594 28.5 3.83594C26.9531 3.83594 25.875 4.9375 25.2188 6.92969L21 20.1953L7.125 20.1016C5.0625 20.0781 3.67969 20.7812 3.1875 22.2344C2.67188 23.7344 3.42188 25.1172 5.10938 26.3125L16.4297 34.4219L11.9766 47.5938C11.3203 49.5391 11.5781 51.0859 12.7969 52.0234Z" fill="url(#paint0_radial)"/>
<defs>
<radialGradient id="paint0_radial" cx="0" cy="0" r="1" gradientUnits="userSpaceOnUse" gradientTransform="translate(-1.5 57) rotate(-43.5312) scale(82.7587 82.6499)">
<stop stop-color="#5BCAFF"/>
<stop offset="1" stop-color="#0066FF"/>
</radialGradient>
</defs>
</svg>
